src/assets/img/icon-tag-small-white.svg

<svg xmlns="http://www.w3.org/2000/svg" viewBox="0 0 14.1 14.1"><path d="M14.1 8.1c0 .3-.1.6-.3.9L9 13.7c-.2.2-.5.4-.8.4-.3 0-.6-.1-.8-.4L0 6.4.5.5 6.4 0l7.2 7.2c.3.3.4.6.5.9zm-1.1 0c0-.1 0-.1-.1-.2L6 1l-4.6.4L1 6l6.9 6.9c.1.1.2.1.3 0L13 8.1c0 .1 0 0 0 0zM5.1 3c.3.3.5.7.4 1.1 0 .4-.1.8-.4 1.1-.3.3-.6.4-1 .4s-.8-.2-1.1-.4c-.3-.3-.4-.7-.4-1.1 0-.8.7-1.5 1.5-1.5.4-.1.7.1 1 .4zm-.7.7c-.1-.1-.2-.1-.3-.1-.1 0-.3 0-.4.1-.2.2-.2.5 0 .7.2.2.4.2.7 0 .2-.2.2-.5 0-.7z" fill="#aea2bc"/></svg>

<?xml version="1.0" encoding="utf-8"?>
<!-- Generator: Adobe Illustrator 22.1.0, SVG Export Plug-In . SVG Version: 6.00 Build 0)  -->
<svg version="1.1" id="Слой_1" xmlns="http://www.w3.org/2000/svg" xmlns:xlink="http://www.w3.org/1999/xlink" x="0px" y="0px"
	 viewBox="0 0 14.1 14.1" style="enable-background:new 0 0 14.1 14.1;" xml:space="preserve">
<style type="text/css">
	.st0{fill:#7287A5;}
</style>
<path class="st0" d="M14.1,8.1c0,0.3-0.1,0.6-0.3,0.9L9,13.7c-0.2,0.2-0.5,0.4-0.8,0.4S7.6,14,7.4,13.7L0,6.4l0.5-5.9L6.4,0l7.2,7.2
	C13.9,7.5,14,7.8,14.1,8.1z M13,8.1C13,8,13,8,12.9,7.9L6,1L1.4,1.4L1,6l6.9,6.9C8,13,8.1,13,8.2,12.9L13,8.1C13,8.2,13,8.1,13,8.1z
	 M5.1,3c0.3,0.3,0.5,0.7,0.4,1.1c0,0.4-0.1,0.8-0.4,1.1c-0.3,0.3-0.6,0.4-1,0.4S3.3,5.4,3,5.2C2.7,4.9,2.6,4.5,2.6,4.1
	c0-0.8,0.7-1.5,1.5-1.5C4.5,2.5,4.8,2.7,5.1,3z M4.4,3.7C4.3,3.6,4.2,3.6,4.1,3.6c-0.1,0-0.3,0-0.4,0.1c-0.2,0.2-0.2,0.5,0,0.7
	c0.2,0.2,0.4,0.2,0.7,0C4.6,4.2,4.6,3.9,4.4,3.7z"/>
</svg>
